src/icon/animals/pig.svg

<svg enable-background="new 0 0 24 24" viewBox="0 0 24 24" xmlns="http://www.w3.org/2000/svg"><circle cx="10" cy="17" r="1"/><circle cx="14" cy="17" r="1"/><path d="m22 6.4v-4.4h-4.4c-1.5 0-2.8.9-3.4 2.3-1.5-.4-3.1-.4-4.5 0-.5-1.4-1.8-2.3-3.3-2.3h-4.4v4.4c0 1.3.7 2.4 1.7 3.1-.5 1.1-.7 2.3-.7 3.5 0 5 4 9 9 9s9-4 9-9c0-1.2-.2-2.4-.7-3.5 1-.7 1.7-1.9 1.7-3.1zm-17.3 1.3c-.4-.3-.7-.8-.7-1.3v-2.4h2.4c.6 0 1.2.4 1.5 1-1.3.7-2.4 1.6-3.2 2.7zm3.3 3.3c0-.6.4-1 1-1s1 .4 1 1-.4 1-1 1-1-.5-1-1zm4 9c-2.2 0-4-1.3-4-3s1.8-3 4-3 4 1.3 4 3c0 1.6-1.8 3-4 3zm3-8c-.6 0-1-.4-1-1s.4-1 1-1 1 .4 1 1c0 .5-.4 1-1 1zm5-5.6c0 .5-.3 1.1-.7 1.4-.8-1.1-1.9-2.1-3.1-2.7.2-.6.8-1 1.5-1h2.3z"/></svg>

<?xml version="1.0" encoding="utf-8"?>
<!-- Generator: Adobe Illustrator 18.0.0, SVG Export Plug-In . SVG Version: 6.00 Build 0)  -->
<!DOCTYPE svg PUBLIC "-//W3C//DTD SVG 1.1//EN" "http://www.w3.org/Graphics/SVG/1.1/DTD/svg11.dtd">
<svg version="1.1" id="Layer_1" xmlns="http://www.w3.org/2000/svg" xmlns:xlink="http://www.w3.org/1999/xlink" x="0px" y="0px"
	 viewBox="0 0 24 24" enable-background="new 0 0 24 24" xml:space="preserve">
<g>
	<circle cx="10" cy="17" r="1"/>
	<circle cx="14" cy="17" r="1"/>
	<path d="M22,6.4V2h-4.4c-1.5,0-2.8,0.9-3.4,2.3c-1.5-0.4-3.1-0.4-4.5,0C9.2,2.9,7.9,2,6.4,2H2l0,4.4c0,1.3,0.7,2.4,1.7,3.1
		C3.2,10.6,3,11.8,3,13c0,5,4,9,9,9s9-4,9-9c0-1.2-0.2-2.4-0.7-3.5C21.3,8.8,22,7.6,22,6.4z M4.7,7.7C4.3,7.4,4,6.9,4,6.4L4,4h2.4
		C7,4,7.6,4.4,7.9,5C6.6,5.7,5.5,6.6,4.7,7.7z M8,11c0-0.6,0.4-1,1-1c0.6,0,1,0.4,1,1c0,0.6-0.4,1-1,1C8.4,12,8,11.5,8,11z M12,20
		c-2.2,0-4-1.3-4-3c0-1.7,1.8-3,4-3c2.2,0,4,1.3,4,3C16,18.6,14.2,20,12,20z M15,12c-0.6,0-1-0.4-1-1c0-0.6,0.4-1,1-1
		c0.6,0,1,0.4,1,1C16,11.5,15.6,12,15,12z M20,6.4c0,0.5-0.3,1.1-0.7,1.4c-0.8-1.1-1.9-2.1-3.1-2.7c0.2-0.6,0.8-1,1.5-1H20V6.4z"/>
</g>
</svg>
